X:1399
T:Betty Brown. JC.040
M:C|
L:1/8
Q:120
S:John Clare,Poet,Helpston. (1793-1864)
R:Air
O:England
A:Northamptonshire
N:Most of the quavers are separated in the MS , but i have beamed them
N:for clarity. It makes no difference to the tune.CGP.
Z:P Headford
K:G
DD|G2Bdc2AF|(DF) AFG3A|B2GBA2Bg|(fe) dcd3d|
g2d=fe2ce|(dB) AGA3d|!B2cde3g|B2cAG4|g2fed4|
e2dc{c}B3c|(dB) AGe2fg|B2BAG2|]
W:Song text exists. See Deacon.


